!!!!SEGMENT: pl-sa--480-a-viii-120--004_anonim--zdrowals-maryja-lspiewajmy.krn
!!!cenid: 17xx:1714
!!!COM: Anonim
!!!COM-rismID: pe30004985
!!!CDT:
!!!CNT:
!!!OTL: Zdrowaś Maryja śpiewajmy
!!!PDT:
!!!AGN: Sacred
!!!SMS-siglum: PL-SA
!!!SMS-shelfmark: 480/A VIII 120
!!!SMS-shelfwork: 004 W
!!!SMS-variant:
!!!SMS-altvar:
!!!NIFC-rismSourceID: 1001041378
!!!NIFC-rismChildID: 1001041378
!!!NIFC-islandoraID: none
!!!URL-pdf-islandora:
!!!URL-scan: https://bc.bdsandomierz.pl/dlibra/publication/1206/edition/1165/content @EN{Scan in the Sandomierz Diocese Digital Library} @PL{Skany w portalu Cyfrowa Biblioteka Diecezjalna w Sandomierzu}
!!!ONB-nifc: UWAGA: utwory w zbiorze: 1. Quem terra pontus sidera, 2. Witaj krynico, 3. Zawitaj córko, 4. Zdrowaś Maryja śpiewajmy
!!!OMD:
!!!AIN: 1 organ 1 soprn 2 violn
!!!key: A
**kern	**kern	**kern	**kern	**text
*part4	*part3	*part2	*part1	*part1
*staff4	*staff3	*staff2	*staff1	*staff1
*I"Baſso	*I"Violino Secundo_	*I"Violino Primo	*I"Canto Primo.	*
*I'b	*I'vl 2	*I'vl 1	*I'S 1	*
*Iorgan	*Ivioln	*Ivioln	*Isoprn	*
*ICklav	*ICstr	*ICstr	*ICvox	*
*clefF4	*clefG2	*clefG2	*clefC1	*
*k[f#c#g#]	*k[f#c#g#]	*k[f#c#g#]	*k[f#c#g#]	*
*A:	*A:	*A:	*A:	*
*M2/4	*M2/4	*M2/4	*M2/4	*
=1	=1	=1	=1	=1
!LO:TX:a:t=P:problem=brak partii z źródle	!LO:TX:b:t=Zdrowas Marya	!LO:TX:b:t=Zdrowas Marya Spiwaymy.	!	!
2ryy	4c#/	4a/	4a\	Zdro-
.	8c#/L	8a/L	8a\L	-was
.	8d/J	8b/J	8b\J	Ma-
=2	=2	=2	=2	=2
2ryy	4e/	4cc#\	4cc#\	-ry-
.	8d/L	8b/L	8b\L	-a
.	8c#/J	8a/J	8a\J	.
=3	=3	=3	=3	=3
2ryy	4d/	4b/	4b\	Spie-
.	8d/L	8b/L	8b\L	-way-
.	8B/J	8g#/J	8g#\J	.
=4	=4	=4	=4	=4
*	*	*	*2\right	*
2ryy	2c#/	2a/	2a\	-my
=5	=5	=5	=5	=5
2ryy	4g#/	4b/	4b\	Zdro-
.	8g#/L	8b/L	8b\L	-waś
.	8a/J	8cc#/J	8cc#\J	Ma-
=6	=6	=6	=6	=6
2ryy	4b/	4dd\	4dd\	-ry-
.	8a/L	8cc#\L	8cc#\L	-a
.	8g#/J	8b\J	8b\J	.
=7	=7	=7	=7	=7
2ryy	4.a/	4.cc#\	4.cc#\	Wo-
.	8b/	8dd\	8dd\	.
=8	=8	=8	=8	=8
2ryy	8cc#/L	8ee\L	8ee\L	-łay-
.	8a/J	8cc#\J	8cc#\J	.
.	4c#/	4a/	4a\	-my
!	!	!LO:LB:g=original	!LO:LB:g=original	!
=9	=9	=9	=9	=9
2ryy	8.cc#\L	8.ee\L	8.ee\	O
!	!	!LO:N:vis=8	!	!
.	16dd\Jk	16ff#\Jk	16ff#\	.
.	8cc#\L	8ee\L	8ee\L	Je-
.	8b\J	8dd\J	8dd\J	.
=10	=10	=10	=10	=10
*	*	*2\right	*	*
2ryy	2a/	2cc#\	2cc#\	-zu
=11	=11	=11	=11	=11
2ryy	8b\L	8ee\L	8ee\	nad
.	16b\L	16dd\L	16dd\LL	na-
!	!	!LO:TX:a:t=c	!	!
.	16a\JJ	16cc#\JJ	16cc#\JJ	.
!	!	!LO:TX:a:t=h.	!	!
.	4g#/	4b\	4b\	-mi
=12	=12	=12	=12	=12
2ryy	8e/L	8cc#\L	8cc#\	pro-
.	16e/L	16cc#\L	16cc#\LL	-sze-
.	16d/JJ	16b\JJ	16b\JJ	.
.	8.c#/L	8.a/L	8.a\L	-my
.	32d/LL	32b/LL	(32b\LL	.
.	32e/JJJ	32cc#/JJJ	32cc#\JJJ)	.
=13	=13	=13	=13	=13
2ryy	4g#/	4b/	4b\	ze
.	8g#/L	8b/L	8b\L	łza-
.	8e/J	8g#/J	8g#\J	.
=14	=14	=14	=14	=14
2ryy	2G#/	2e/	2e/	-mi
!	!LO:LB:g=original	!	!	!
=15	=15	=15	=15	=15
2ryy	8c#/L	8a/L	8a\L	zmi-
.	8e/	8cc#/J	8cc#\J	.
.	8d/	8b/L	8b\L	-łuy
.	8B/J	8g#/J	8g#\J	.
=16	=16	=16	=16	=16
2ryy	4d/	4b/	4b\	się
.	4c#/	4a/	4a\	.
==	==	==	==	==
*-	*-	*-	*-	*-
!!!system-decoration: s1[(s2,s3)]s4
!!!ENC: Berenika Jozajtis
!!!END: 2021-01-25
!!!ENC: Marta Chmielewska
!!!END: 2022-01-11
!!!YEC: Copyright 2022 Narodowy Instytut Fryderyka Chopina (https://polishscores.org)
!!!YEM: License CC-BY-4.0 (https://creativecommons.org/licenses/by/4.0)
